static/img/kroki/bf3085d149ceff2cdf186850de9ceec9.svg

<?xml version="1.0" encoding="us-ascii" standalone="no"?><svg xmlns="http://www.w3.org/2000/svg" xmlns:xlink="http://www.w3.org/1999/xlink" contentStyleType="text/css" height="152px" preserveAspectRatio="none" style="width:283px;height:152px;" version="1.1" viewBox="0 0 283 152" width="283px" zoomAndPan="magnify"><defs/><g><!--class azure_security_assessment--><g id="elem_azure_security_assessment"><rect codeLine="23" fill="#3D176E" height="39.7891" id="azure_security_assessment" rx="2.5" ry="2.5" style="stroke:#000D19;stroke-width:0.5;" width="269" x="7" y="7"/><ellipse cx="22" cy="26.8945" fill="#ADD1B2" rx="11" ry="11" style="stroke:#181818;stroke-width:1.0;"/><path d="M24.9688,32.5352 Q24.3906,32.832 23.75,32.9727 Q23.1094,33.1289 22.4063,33.1289 Q19.9063,33.1289 18.5781,31.4883 Q17.2656,29.832 17.2656,26.707 Q17.2656,23.582 18.5781,21.9258 Q19.9063,20.2695 22.4063,20.2695 Q23.1094,20.2695 23.75,20.4258 Q24.4063,20.582 24.9688,20.8789 L24.9688,23.5977 Q24.3438,23.0195 23.75,22.7539 Q23.1563,22.4727 22.5313,22.4727 Q21.1875,22.4727 20.5,23.5508 Q19.8125,24.6133 19.8125,26.707 Q19.8125,28.8008 20.5,29.8789 Q21.1875,30.9414 22.5313,30.9414 Q23.1563,30.9414 23.75,30.6758 Q24.3438,30.3945 24.9688,29.8164 L24.9688,32.5352 Z " fill="#000000"/><text fill="#D9B8FF" font-family="Helvetica" font-size="17" lengthAdjust="spacing" textLength="227" x="41" y="32.7798">azure_security_assessment</text></g><!--class microsoft_resource--><g id="elem_microsoft_resource"><rect codeLine="26" fill="#3D176E" height="39.7891" id="microsoft_resource" rx="2.5" ry="2.5" style="stroke:#000D19;stroke-width:0.5;" width="200" x="41.5" y="106.79"/><ellipse cx="56.5" cy="126.6845" fill="#ADD1B2" rx="11" ry="11" style="stroke:#181818;stroke-width:1.0;"/><path d="M59.4688,132.3252 Q58.8906,132.622 58.25,132.7627 Q57.6094,132.9189 56.9063,132.9189 Q54.4063,132.9189 53.0781,131.2783 Q51.7656,129.622 51.7656,126.497 Q51.7656,123.372 53.0781,121.7158 Q54.4063,120.0595 56.9063,120.0595 Q57.6094,120.0595 58.25,120.2158 Q58.9063,120.372 59.4688,120.6689 L59.4688,123.3877 Q58.8438,122.8095 58.25,122.5439 Q57.6563,122.2627 57.0313,122.2627 Q55.6875,122.2627 55,123.3408 Q54.3125,124.4033 54.3125,126.497 Q54.3125,128.5908 55,129.6689 Q55.6875,130.7314 57.0313,130.7314 Q57.6563,130.7314 58.25,130.4658 Q58.8438,130.1845 59.4688,129.6064 L59.4688,132.3252 Z " fill="#000000"/><text fill="#D9B8FF" font-family="Helvetica" font-size="17" lengthAdjust="spacing" textLength="158" x="75.5" y="132.5698">microsoft_resource</text></g><!--link azure_security_assessment to microsoft_resource--><g id="link_azure_security_assessment_microsoft_resource"><path codeLine="29" d="M141.5,47.22 C141.5,64.36 141.5,83.27 141.5,100.41 " fill="none" id="azure_security_assessment-to-microsoft_resource" style="stroke:#1A83AF;stroke-width:2.0;"/><polygon fill="#1A83AF" points="141.5,106.41,145.5,97.41,141.5,101.41,137.5,97.41,141.5,106.41" style="stroke:#1A83AF;stroke-width:2.0;"/></g><!--SRC=[XP9FQyCm3CNl-HI6dWlDmjRqCiW2PRkKiUusHd1jkJMDxI0hA-dOTr-oTiDB-kUgzvFqdj16Is1WAcgO0RC2z97VQbjnv8PbY6wNkz8X6od5LJBjYtDdwIgmu0RO8vGVG5hmFl6wqM9hmNjs4qWFN6pNw6eh3-C9kVMj19O2AY-vznaHwbLD49YHirMgL9_i3nqbCfxUmG1pA06Fo6GoaV6iZrnTTJ7t7x7KUs1nUBI58nZO7ApueIwwx8Z0v23ehtxMupENKjirkmrgBmTFQ07_rPSRBjskenKlVRZ64o0uQYh81wbWbaerFGa_dOCZqPsEyNsDK7WGDMfgYhRK_ezfVuDzHj7N4J9QeFDEKO7WNOq23khvvl7RACxI99k_Z-zFj4VV]--></g></svg>

<svg xmlns="http://www.w3.org/2000/svg" width="283" height="152" viewBox="0 0 283 152"><rect width="269" height="39.789" x="7" y="7" fill="#3D176E" rx="2.5" ry="2.5" style="stroke:#000d19;stroke-width:.5"/><circle cx="22" cy="26.895" r="11" fill="#ADD1B2" style="stroke:#181818;stroke-width:1"/><path d="M24.969 32.535q-.578.297-1.219.438-.64.156-1.344.156-2.5 0-3.828-1.64-1.312-1.657-1.312-4.782t1.312-4.781q1.328-1.656 3.828-1.656.703 0 1.344.156.656.156 1.219.453v2.719q-.625-.578-1.219-.844-.594-.281-1.219-.281-1.343 0-2.031 1.078-.687 1.062-.687 3.156t.687 3.172q.688 1.062 2.031 1.062.625 0 1.219-.265.594-.281 1.219-.86z"/><text x="41" y="32.78" fill="#D9B8FF" font-family="Helvetica" font-size="17" textLength="227">azure_security_assessment</text><rect width="200" height="39.789" x="41.5" y="106.79" fill="#3D176E" rx="2.5" ry="2.5" style="stroke:#000d19;stroke-width:.5"/><circle cx="56.5" cy="126.684" r="11" fill="#ADD1B2" style="stroke:#181818;stroke-width:1"/><path d="M59.469 132.325q-.578.297-1.219.438-.64.156-1.344.156-2.5 0-3.828-1.64-1.312-1.657-1.312-4.782t1.312-4.781q1.328-1.656 3.828-1.656.703 0 1.344.156.656.156 1.219.453v2.719q-.625-.579-1.219-.844-.594-.281-1.219-.281-1.343 0-2.031 1.078-.687 1.062-.687 3.156t.687 3.172q.688 1.062 2.031 1.062.625 0 1.219-.265.594-.281 1.219-.86z"/><text x="75.5" y="132.57" fill="#D9B8FF" font-family="Helvetica" font-size="17" textLength="158">microsoft_resource</text><path fill="none" d="M141.5 47.22v53.19" style="stroke:#1a83af;stroke-width:2"/><path fill="#1A83AF" d="m141.5 106.41 4-9-4 4-4-4z" style="stroke:#1a83af;stroke-width:2"/></svg>
